src/Icon/svgs/Repeat.svg

<svg width="24" height="24" viewBox="0 0 24 24" fill="none" xmlns="http://www.w3.org/2000/svg">
<path d="M22 13V11H20V13C20 15.7614 17.7614 18 15 18H7.99999V16.5C7.99999 16.306 7.88776 16.1295 7.71207 16.0472C7.53638 15.9649 7.32894 15.9917 7.1799 16.1159L4.1799 18.6159C4.0659 18.7109 3.99999 18.8516 3.99999 19C3.99999 19.1484 4.0659 19.2891 4.1799 19.3841L7.1799 21.8841C7.32894 22.0083 7.53638 22.0351 7.71207 21.9528C7.88776 21.8705 7.99999 21.694 7.99999 21.5V20H15C18.866 20 22 16.866 22 13Z" fill="#1B1C1D"/>
<path d="M1.99998 11L1.99998 13H3.99998L3.99998 11C3.99999 8.23859 6.23856 6.00001 8.99999 6.00001L16 6.00001V7.50001C16 7.69402 16.1122 7.87051 16.2879 7.9528C16.4636 8.03509 16.671 8.00832 16.8201 7.88412L19.8201 5.38412C19.9341 5.28912 20 5.1484 20 5.00001C20 4.85162 19.9341 4.71089 19.8201 4.6159L16.8201 2.1159C16.671 1.99169 16.4636 1.96492 16.2879 2.04721C16.1122 2.1295 16 2.306 16 2.50001L16 4.00001L8.99999 4.00001C5.13399 4.00001 1.99999 7.13402 1.99998 11Z" fill="#1B1C1D"/>
</svg>

<svg xmlns="http://www.w3.org/2000/svg" width="24" height="24" fill="#1b1c1d"  xmlns:v="https://vecta.io/nano"><path d="M22 13v-2h-2v2a5 5 0 0 1-5 5H8v-1.5a.5.5 0 0 0-.82-.384l-3 2.5a.5.5 0 0 0 0 .768l3 2.5A.5.5 0 0 0 8 21.5V20h7a7 7 0 0 0 7-7zM2 11v2h2v-2a5 5 0 0 1 5-5h7v1.5a.5.5 0 0 0 .82.384l3-2.5a.5.5 0 0 0 0-.768l-3-2.5A.5.5 0 0 0 16 2.5V4H9a7 7 0 0 0-7 7z"/></svg>
